packages/ui-icons/svg/Solid/peer-review.svg

<svg viewBox="0 0 1920 1920" version="1.1" xmlns="http://www.w3.org/2000/svg">
    <path d="M1507.33867,693 L1386.69867,693 L1386.69867,572.36 L1612.08533,346.866667 L1732.832,467.506667 L1507.33867,693 Z M604.8,479.666667 C720,479.666667 720,586.333333 836.266667,586.333333 C898.986667,586.333333 927.573333,554.44 959.253333,525.64 C959.36,528.2 960,530.546667 960,533 L960,639.666667 C960,786.653333 840.32,906.333333 693.333333,906.333333 C546.346667,906.333333 426.666667,786.653333 426.666667,639.666667 L426.666667,575.666667 C491.733333,549.32 510.293333,479.666667 604.8,479.666667 Z M1624.88533,183.24 C1653.36533,154.866667 1699.65867,154.76 1728.032,183.24 L1728.032,183.24 L1896.352,351.56 C1924.832,380.04 1924.832,426.333333 1896.352,454.813333 L1896.352,454.813333 L1572.832,778.333333 C1558.752,792.2 1540.61867,799.666667 1521.312,799.666667 L1521.312,799.666667 L1280.032,799.666667 L1280.032,558.386667 C1280.032,539.08 1287.49867,520.84 1301.04533,507.08 L1301.04533,507.08 Z M1108.05333,949 C1050.98667,937.053333 993.386667,928.306667 935.573333,921.373333 C1015.14667,852.786667 1066.66667,752.626667 1066.66667,639.666667 L1066.66667,533 C1066.66667,327.133333 899.2,159.666667 693.333333,159.666667 C487.466667,159.666667 320,327.133333 320,533 L320,639.666667 C320,752.413333 371.2,852.36 450.56,920.84 C392.96,927.88 335.573333,937.053333 278.826667,948.893333 C117.333333,982.92 0,1136.84 0,1314.97333 L0,1519.88 L21.6533333,1535.88 C150.293333,1630.81333 362.24,1746.54667 641.6,1759.66667 C658.773333,1760.41333 675.733333,1760.84 692.586667,1760.84 C1009.6,1760.84 1248,1621.85333 1364.90667,1535.98667 L1386.66667,1519.98667 L1386.66667,1315.08 C1386.66667,1136.94667 1269.44,983.026667 1108.05333,949" stroke="none" stroke-width="1" fill-rule="evenodd"/>
</svg>

<svg viewBox="0 0 1920 1920" version="1.1" xmlns="http://www.w3.org/2000/svg">
    <path d="M1507.339 693h-120.64V572.36l225.386-225.493 120.747 120.64L1507.339 693zm389.013-341.44c28.48 28.48 28.48 74.773 0 103.253l-323.52 323.52c-14.08 13.867-32.213 21.334-51.52 21.334h-241.28v-241.28c0-19.307 7.467-37.547 21.013-51.307l323.84-323.84c28.48-28.373 74.774-28.48 103.147 0l168.32 168.32zM693.333 906.333c-146.986 0-266.666-119.68-266.666-266.666v-64c65.066-26.347 83.626-96 178.133-96 115.2 0 115.2 106.666 231.467 106.666 62.72 0 91.306-31.893 122.986-60.693.107 2.56.747 4.907.747 7.36v106.667c0 146.986-119.68 266.666-266.667 266.666zM1108.053 949c-57.066-11.947-114.666-20.693-172.48-27.627 79.574-68.586 131.094-168.746 131.094-281.706V533c0-205.867-167.467-373.333-373.334-373.333C487.467 159.667 320 327.133 320 533v106.667c0 112.746 51.2 212.693 130.56 281.173-57.6 7.04-114.987 16.213-171.733 28.053C117.333 982.92 0 1136.84 0 1314.973v204.907l21.653 16c128.64 94.933 340.587 210.667 619.947 223.787 17.173.746 34.133 1.173 50.987 1.173 317.013 0 555.413-138.987 672.32-224.853l21.76-16V1315.08c0-178.133-117.227-332.053-278.614-366.08" stroke="none" stroke-width="1" fill-rule="evenodd"/>
</svg>
